X: 061
T: You'll never die for Love
%R: march, reel
Z: 2014 John Chambers <jc:trillian.mit.edu>
B: Thompson "Twenty four Country Dances for the Year 1805" p.6 #1
F: http://folkopedia.efdss.org/images/2/2a/Thompson_24_1805.PDF 2014-8-13
M: 2/4
L: 1/8
K: Bb
F |\
B>cBd | fdBe | dcBA | B/A/B/c/ BF |\
B>cBd | fdBe | dcBA | B2 B :|
|: f |\
bfdB | b/a/b/c'/ bb | c'bag | a/b/c'/b/ ff |\
bfdB | egf>e | dB FA | B2 B :|
% - - - - - - - - - - - - - - - - - - - - - - - - -
%%begintext align
%% Cast of 2 Cu: up again, lead down the
%% middle up again, turn corners & lead
%% outsides.
%%endtext
% - - - - - - - - - - - - - - - - - - - - - - - - -
